PortableApps/LibreOfficePortable/App/libreoffice/help/media/icon-themes/cmd/sc_deleteallbreaks.svg

<svg viewBox="0 0 16 16" xmlns="http://www.w3.org/2000/svg"><path d="m.49804758 4.9991328c-.275368.0011-.498022.22463-.498047.5v5.0000002c-.000621.424388.494386.65657.820312.384766l3.00000002-2.5000002c.24089-.199955.24089-.569577 0-.769532l-3.00000002-2.5c-.09052-.07512-.204633-.115924-.322265-.115234z" fill="#4d82b8"/><path d="m6.0019531 7c-.554 0-1 .446-1 1s.446 1 1 1h.0390625c-.0738924-.3319271.0061018-.6902368.2714844-.9414062l1.1171875-1.0585938z" fill="#4d82b8"/><path d="m5 10c-.554 0-1 .446-1 1v5h1v-5h2.7617188l-.9746094-1zm10.759766.371094-.759766.839844v.49414l1 1.017578v-1.722656c0-.242866-.09728-.456028-.240234-.628906z" fill="#808080"/><path d="m5 11v5h2.4570312l-1.1582031-1.140625c-.3943812-.388045-.3987548-1.022566-.0097656-1.416016l1.9414063-1.96289-.46875-.480469zm10 .210938-.232422.257812.232422.236328zm-3.488281 3.46289-1.253907 1.326172h2.509766z" fill="#fff"/><path d="m5.002 6c-.554 0-1.0783767-.4515722-1-1v-5h1v5h10.000214v-5h1v5c0 .554-.446 1-1 1z" fill="#808080"/><path d="m5.0015725 0v5h10.0002135v-5z" fill="#fff"/><path d="m16 14.149904-2.605902-2.651537 2.50749-2.7777731-1.807553-1.7205858-2.580554 2.6470557-2.6328653-2.6470557-1.8806157 1.783872 2.6328627 2.7031729-2.6328627 2.660005 1.8806157 1.852942 2.6298103-2.77941 2.635919 2.77941z" fill="#e68497"/></svg>

<?xml version="1.0" encoding="UTF-8" standalone="no"?>
<svg xmlns="http://www.w3.org/2000/svg" xmlns:sodipodi="http://sodipodi.sourceforge.net/DTD/sodipodi-0.dtd" xmlns:inkscape="http://www.inkscape.org/namespaces/inkscape" viewBox="0 0 16 16" version="1.1">
 <metadata id="metadata26">
  <rdf:RDF>
   <cc:Work>
    <dc:format>image/svg+xml</dc:format>
    <dc:type rdf:resource="http://purl.org/dc/dcmitype/StillImage"/>
   </cc:Work>
  </rdf:RDF>
 </metadata>
 <defs id="defs24"/>
 <sodipodi:namedview pagecolor="#ffffff" bordercolor="#666666" borderopacity="1" objecttolerance="10" gridtolerance="10" guidetolerance="10" inkscape:pageopacity="0" inkscape:pageshadow="2" inkscape:window-width="2560" inkscape:window-height="1319" id="namedview22" showgrid="false" inkscape:zoom="41.7193" inkscape:cx="12.805514" inkscape:cy="7.5147186" inkscape:window-x="0" inkscape:window-y="30" inkscape:window-maximized="1" inkscape:current-layer="svg20"/>
 <path inkscape:connector-curvature="0" id="path2" d="m 0.49804758,4.9991328 c -0.275368,0.0011 -0.498022,0.22463 -0.498047,0.5 v 5.0000002 c -6.21e-4,0.424388 0.494386,0.65657 0.820312,0.384766 L 3.8203126,8.3838988 c 0.24089,-0.199955 0.24089,-0.569577 0,-0.769532 l -3.00000002,-2.5 c -0.09052,-0.07512 -0.204633,-0.115924 -0.322265,-0.115234 z" fill="#4d82b8"/>
 <path d="M 6.0019531 7 C 5.4479531 7 5.0019531 7.446 5.0019531 8 C 5.0019531 8.554 5.4479531 9 6.0019531 9 L 6.0410156 9 C 5.9671232 8.6680729 6.0471174 8.3097632 6.3125 8.0585938 L 7.4296875 7 L 6.0019531 7 z " id="rect4" fill="#4d82b8"/>
 <path d="m 5,10 c -0.554,0 -1,0.446 -1,1 v 5 H 5 V 11 H 7.7617188 L 6.7871094,10 Z M 15.759766,10.371094 15,11.210938 v 0.49414 l 1,1.017578 V 11 c 0,-0.242866 -0.09728,-0.456028 -0.240234,-0.628906 z" id="path10" inkscape:connector-curvature="0" sodipodi:nodetypes="sscccccsccccsc" fill="#808080"/>
 <path d="M 5 11 L 5 16 L 7.4570312 16 L 6.2988281 14.859375 C 5.9044469 14.47133 5.9000733 13.836809 6.2890625 13.443359 L 8.2304688 11.480469 L 7.7617188 11 L 5 11 z M 15 11.210938 L 14.767578 11.46875 L 15 11.705078 L 15 11.210938 z M 11.511719 14.673828 L 10.257812 16 L 12.767578 16 L 11.511719 14.673828 z " id="path12" fill="#ffffff"/>
 <path d="m5.002 6c-.554 0-1.0783767-.4515722-1-1v-5h1v5h10.000214v-5h1v5c0 .554-.446 1-1 1z" fill="#808080" id="path16"/>
 <path d="m5.0015725 0v5h10.0002135v-5z" fill="#fff" id="path18"/>
 <path inkscape:connector-curvature="0" d="M 16,14.149904 13.394098,11.498367 15.901588,8.7205939 14.094035,7.0000081 11.513481,9.6470638 8.8806157,7.0000081 7,8.7838801 9.6328627,11.487053 7,14.147058 8.8806157,16 11.510426,13.22059 14.146345,16 Z" id="path6" fill="#e68497"/>
</svg>
